X:1
T:Paddy on the Handcar
B:CCDB version
M:2/4
L:1/8
Q:1/8=200
K:G t=8
|: E/A/A/A/ AA/B/|c/B/A/B/ c/B/A/G/|E/G/G/G/ G G|E/G/G/G/ G G|
E/A/A/A/ A A/B/|c/B/A/B/ c c/d/|e/d/e/f/ g/f/e/d/|cAA z:|
|:TeaTea|e/d/e/f/ g/f/e/d/|TBgTBg|B/A/B/c/ d2|
TeaTea|e/d/e/f/ gd|e/d/e/f/ g/f/e/d/|cAA z:|
